X: 37028
T: Sillocks And Tatties
R: reel
M: 4/4
K: Dmixolydian
B|:B2c2 BGGB|A2 Ag fded|A2 Ac BGGe|1 faef d3 B:|2 faef d3 e||
K:D
fdad ecce|fdad bdad|fdad ecce|faef d2 de|
fdad ecce|fdad bdad|gefd ecce|faef d3||

